X:1
T:Quitandinha
T:Quitandinha
T:Choro
T:Azevedo
C:Azevedo eMiceli
L:1/8
Q:1/4=85
M:2/4
K:G
V:1 treble nm="Piano" snm="Pno."
V:1
 z/ G/A/B/ |:S"G" d/B/A/G/ A/B^d/- |"Gpower#5" d/B/A/G/ A/Be/- |"E7/G#" e/d/B/^G/ E/G/B/e/ | %4
"Am" d/^c=c/- c2 | (3E/^D/E/(3A/^G/A/ (3c/B/c/(3e/^d/e/ |"D7" f/e/d/c/ A/FE/- | %7
"Am" E/A/E/^D/-"Cm" D/A/D/=D/- |"G6" D2 z/ G/A/B/ | d/B/A/G/ A/B/^d- |"Gpower#5" d/B/A/G/ A/B/e- | %11
"E7" e/d/B/^G/ E/G/B/e/ |"Am" d/^c=c/-"Amaj" c/^c/=f/c/ |"Bbm6" ^d/^c/d/c/ =f/c/d/c/ | %14
"G/B" d/D/G/B/"E7" e/d/B/G/ |"Am" E/^D/E/G/"D7" F/=F/^F/A/!dacoda! ||1"G" G2 z/ G/A/B/ :|2 %17
"G" G2 z/ D/G/A/ |:[K:Bb]"Gm" B/D/G/B/"G7/F" =B/D/G/B/ |"Cm/Eb" c/D/G/c/"C#dim7/E" _d/D/G/d/ | %20
"Gm/D" d/D/G/d/"G7/B" e/=e/f/^f/ |"Cm/Eb" g4 |"Cm" c/d/e/g/"Adim7" ^f/ed/- | %23
"Gm" d/D/G/A/ B/A/G/F/ |2"A7" =E/_E/=E/A/ _d/=e/_e- ||"D7" e/d/c/A/ ^F/D/G/A/ :|2 %26
"A7" =E/A/_d/=e/"D7" D/^F/A/=d/ ||"G" G2 z/ G/A/=B/ |[K:G] z4!D.S.! ||O G2 z/ d/d'/^c'/ |: %30
[K:Bb]"Gm" c'/d/c'/=b/ _b/d/b/a/ |"Fm6" _a/d/a/g/ f/d/=B/G/ |"G7" F/G/=B/d/ _a/g/f/g/ |2 %33
"Cm" f/e/d/f/ e/G/g/^f/ ||"Cm" f/G/f/=e/"Cm/Bb" _e/G/e/d/ |"Am7b5" c/D/c/B/ A/D/A/G/ | %36
"D7" ^F/D/F/A/ c/d/(3f/=e/_e/- |"Gm" e/d/_d/e/ =d/d/d'/_d'/ :|2 f/e/d/f/ e2 || %39
"Cm" c/d/e/f/"Am7b5" g2 |"G" G/A/B/d/ g/^f/g/_a/ |"D7" a/^f/d/e/ d/c/B/A/ | %42
"Gm" G2 z/ G/A/=B/!D.S.! |] %43

